X:1
T:VI. Libera me
T:2. Kyrie
T:de la Missa Pro Defunctis
T: Cristobal de Morales 
C:Gabriel Fauré (1845 - 1924)
%%score [ 1 2 3 4 ]
L:1/8
Q:1/2=45
M:2/2
K:F
V:1 treble nm="Cantus"
V:2 treble nm="Altus"
V:3 treble-8 nm="Tenor"
V:4 bass nm="Bassus"
V:1
 z8 | F8 | G8 | A8 | A8 | G8 | B8- | B8 | A8 | F8 | E4 G4 | F4 F4 | E2 F3 E E2 | F8 || c8 | c8 | %16
w: |Ky-|ry-||e||||e-|lei-|son, Ky-|ri- e|e- le- * i-|son.|Chri-|ste|
 A8 | G8 | B8- | B8 | A8- | A8 | F8 | E8 | G8 | F4 F4- | F2 ED E4 | F8 || F8 | G8 | A8 | A8 | %32
w: e-||lei-||son,||Chri-|ste|e-|* lei-||son.|Ky-|ri-|e|e-|
 G4 B4- | B4 A4 | F8 | E8 | G8 | F4 F4- | F4 E4 | F8 |] %40
w: * lei-|* son,|Ky-|ri-|e|* e-|* lei-|son.|
V:2
 C8 | F8 | E8 | E8 | F4 F4- | F2 ED E4 | F8 | G4 F4- | F2 ED C4 | D8 | C4 E4 | D4 C4 | C8- | C8 || %14
w: Ky-|ry-||e|e- lei-||son,|Ky- ri-||e|e- *|* lei-|son.||
 A8 | G4 A4- | A2 G2 F4- | F2 ED E4 | F4 B,4- | B,2 C2 D2 E2 | F4 C4 | F4 F4- | F2 E2 D4- | %23
w: Chri-|ste e-||* * * lei-|son, Chri-|* ste- e- *|* lei-|son, Chri-||
 D2 CB, C4 | D4 E4 | D8 | C8 | C8 || C8 | D8 | E8 | F8 | D6 E2 | F4 C4 | D3 C B,2 A,2 | G,4 G4- | %36
w: |ste e-||lei-|son.|Ky-|ri-|e||e- *|* lei-||son, e-|
 G2 F2 E2 D2 | C4 D4 | C8 | C8 |] %40
w: ||lei-|son.|
V:3
 F8 | A8 | c8- | c8 | d4 c4 | c8 | d8- | d8 | c4 A4 | B6 A2 | G4 c4 | A2 F2 A4- | A2 GF G4 | F8 || %14
w: Ky-|ry-|e||e- lei-|son,|Ky-||ri- e|e- lei-|son, Ky-|ri- e e-|* * * lei-|son.|
 f8 | e4 f4 | c8 | z4 c4 | d2 B4 c2 | d2 e2 f4 | F2 G2 A2 B2 | c4 d4 | A8 | z4 A4 | B4 c4 | A4 B4 | %26
w: Chri-|ste e- lei-|son,|Chri-|ste * *||e- * * *|* lei-|son,|Chri-|ste e-|lei- *|
 G8 | F8 || A8 | G8 | c8 | d4 c4- | c4 B4 | c4 f4- | f2 e2 d4 | c6 BA | G4 B4 | A4 B4 | A2 GF G4 | %39
w: |son.|Ky-|ri-|e|e- *|* lei-|son, Ky-|* ri- e|e- * *|||* * * lei-|
 F8 |] %40
w: son.|
V:4
 F,8 | D,8 | C,8 | A,,4 A,4 | D,4 F,4 | C,8 | B,,4 B,4 | G,4 B,4 | F,8 | z4 B,,4 | C,4 C,4 | %11
w: Ky-|ri-|e|e- lei-|son, Ky-|ri-|e e-|lei- *|son,|Ky-|ri- e|
 D,4 F,4 | C,8 | F,8 || F,8 | C4 F,4- | F,2 G,2 A,2 B,2 | C8 | B,4 z4 | B,,6 C,2 | D,2 E,2 F,4- | %21
w: e- *|lei-|son.|Chri-|ste e-||lei-|son,|Chri- *||
 F,4 D,4- | D,2 E,2 F,2 G,2 | A,8 | G,4 C,4 | D,4 B,,4 | C,8 | F,8 || F,8 | B,8 | A,8 | D,4 F,4 | %32
w: * ste|* e- * *|lei-|son, Chri-|ste e-|lei-|son.|Ky-|ri-|e|e- *|
 G,8 | F,8 | B,,8 | C,6 D,2 | E,8 | F,4 B,,4 | C,8 | F,8 |] %40
w: lei-|son,|Ky-|ri- *||e e-|lei-|son.|

